X:430
T: Padraig's Favourite
S: "Sully's Irish Music Book"
Z: B.Black
L: 1/8
M: 4/4
R: reel
K: Ador
A2 EA cAEA|gfed cAFD|G2 DG BAGE|DEGA Bdge|
A2 EA cAEA|gfed ^cdef|gabg aged|cAGE A4 :|
a2 e^c A2 ce|a2 bg agef|g2 dg egde|g2 bg ageg|
a2 e^c A2 ce|a2 bg agef|gabg aged|cAGE A4 :|
